16x16/actions/SuggestionTM.svg

<svg viewBox="0 0 16 16" xmlns="http://www.w3.org/2000/svg"><path d="m2 2v1h1v-1zm2 0v1h5v-1zm8 2-4 6h2v4l4-6h-2zm-10 1v1h1v-1zm2 0v1h5v-1zm-2 3v1h1v-1zm2 0v1h3v-1z" fill="#8b9cbe"/></svg>

<svg xmlns="http://www.w3.org/2000/svg" viewBox="0 0 16 16"><path style="fill:currentColor;fill-opacity:1;stroke:none;color:#8b9cbe" d="M2 2v1h1V2H2zm2 0v1h5V2H4zm8 2-4 6h2v4l4-6h-2V4zM2 5v1h1V5H2zm2 0v1h5V5H4zM2 8v1h1V8H2zm2 0v1h3V8H4z"/></svg>
